X:1
T:The Coal Baron's Hymn
M:6/8
L:1/8
K:Eb
 c| e2 e c2 c| eee c2 c| Beee-d e| f3- f2 e| eee c2 c| e2 e cee| dedc-d c|\
 B3- BB B|c-d e B2 B/2B/2|A-B A GGG|F-B B=A-B c| B3- B z B| eee c2 c|\
e-e e c2 c| BecB-e d| e3- e z B| eee c2 c| e2 e c2 c| BecB-e d| e3- e2||\
